X:64
T:One And All. WM.064
M:C
L:1/8
Q:1/2=100
S:Wm.Mittell’s MS, New Romney,Kent,1799
R:.Rant
O:England
A:Kent
Z:vmp.Chris Partington
K:G
D2|GABG BcdB|efge dBAG|ABcd|AFED|G2G2G2:|!
|:d2|gabg afed|efge dBAG|efge dBAG|A2A2A2d2|!
gabg afed|efge dBAG|ABcd AFED|G2G2G2:|

